22x22/apps/tdeprintfax.svg

<svg xmlns="http://www.w3.org/2000/svg" width="22" height="22" version="1">
 <rect style="opacity:0.2" width="14" height="20" x="-15.5" y="-21" rx="1" ry="1" transform="matrix(0,-1,-1,0,0,0)"/>
 <rect style="fill:#797979" width="14" height="20" x="-15" y="-21" rx="1" ry="1" transform="matrix(0,-1,-1,0,0,0)"/>
 <path style="opacity:0.2" d="m 3,13 v 7.5 c 0,0.554 0.446,1 1,1 h 14 c 0.554,0 1,-0.446 1,-1 V 13 Z"/>
 <rect style="opacity:0.2" width="18" height="2" x="2" y="11"/>
 <path style="fill:#f4f4f7" d="m 3,12 v 8 c 0,0.554 0.446,1 1,1 h 14 c 0.554,0 1,-0.446 1,-1 v -8 z"/>
 <rect style="opacity:0.5" width="11" height="1" x="5" y="18"/>
 <rect style="opacity:0.5" width="8" height="1" x="5" y="16"/>
 <rect style="opacity:0.5" width="12" height="1" x="5" y="14"/>
 <path style="opacity:0.2" d="M 12.75,2.5 C 12.3345,2.5 12,2.8345 12,3.25 v 0.5 c 0,0.4155 0.3345,0.75 0.75,0.75 h 0.5 C 13.6655,4.5 14,4.1655 14,3.75 V 3.25 C 14,2.8345 13.6655,2.5 13.25,2.5 Z m 3,0 C 15.3345,2.5 15,2.8345 15,3.25 v 0.5 c 0,0.4155 0.3345,0.75 0.75,0.75 h 0.5 C 16.6655,4.5 17,4.1655 17,3.75 V 3.25 C 17,2.8345 16.6655,2.5 16.25,2.5 Z m 3,0 C 18.3345,2.5 18,2.8345 18,3.25 v 0.5 c 0,0.4155 0.3345,0.75 0.75,0.75 h 0.5 C 19.6655,4.5 20,4.1655 20,3.75 V 3.25 C 20,2.8345 19.6655,2.5 19.25,2.5 Z m -6,3 C 12.3345,5.5 12,5.8345 12,6.25 v 0.5 c 0,0.4155 0.3345,0.75 0.75,0.75 h 0.5 C 13.6655,7.5 14,7.1655 14,6.75 V 6.25 C 14,5.8345 13.6655,5.5 13.25,5.5 Z m 3,0 C 15.3345,5.5 15,5.8345 15,6.25 v 0.5 c 0,0.4155 0.3345,0.75 0.75,0.75 h 0.5 C 16.6655,7.5 17,7.1655 17,6.75 V 6.25 C 17,5.8345 16.6655,5.5 16.25,5.5 Z m 3,0 C 18.3345,5.5 18,5.8345 18,6.25 v 0.5 c 0,0.4155 0.3345,0.75 0.75,0.75 h 0.5 C 19.6655,7.5 20,7.1655 20,6.75 V 6.25 C 20,5.8345 19.6655,5.5 19.25,5.5 Z m -6,3 C 12.3345,8.5 12,8.8345 12,9.25 v 0.5 c 0,0.4155 0.3345,0.75 0.75,0.75 h 0.5 C 13.6655,10.5 14,10.1655 14,9.75 V 9.25 C 14,8.8345 13.6655,8.5 13.25,8.5 Z m 3,0 C 15.3345,8.5 15,8.8345 15,9.25 v 0.5 c 0,0.4155 0.3345,0.75 0.75,0.75 h 0.5 C 16.6655,10.5 17,10.1655 17,9.75 V 9.25 C 17,8.8345 16.6655,8.5 16.25,8.5 Z m 3,0 C 18.3345,8.5 18,8.8345 18,9.25 v 0.5 c 0,0.4155 0.3345,0.75 0.75,0.75 h 0.5 C 19.6655,10.5 20,10.1655 20,9.75 V 9.25 C 20,8.8345 19.6655,8.5 19.25,8.5 Z"/>
 <rect style="fill:#f4f4f7" width="2" height="2" x="18" y="2" rx=".75" ry=".75"/>
 <rect style="fill:#f4f4f7" width="2" height="2" x="15" y="2" rx=".75" ry=".75"/>
 <rect style="fill:#f4f4f7" width="2" height="2" x="12" y="2" rx=".75" ry=".75"/>
 <rect style="fill:#f4f4f7" width="2" height="2" x="18" y="5" rx=".75" ry=".75"/>
 <rect style="fill:#f4f4f7" width="2" height="2" x="15" y="5" rx=".75" ry=".75"/>
 <rect style="fill:#f4f4f7" width="2" height="2" x="12" y="5" rx=".75" ry=".75"/>
 <rect style="fill:#ff5a5a" width="2" height="2" x="18" y="8" rx=".75" ry=".75"/>
 <rect style="fill:#f4f4f7" width="2" height="2" x="15" y="8" rx=".75" ry=".75"/>
 <rect style="fill:#6bd70f" width="2" height="2" x="12" y="8" rx=".75" ry=".75"/>
 <path style="opacity:0.1;fill:#f4f4f7" d="M 2,1 C 1.446,1 1,1.446 1,2 v 0.5 c 0,-0.554 0.446,-1 1,-1 h 18 c 0.554,0 1,0.446 1,1 V 2 C 21,1.446 20.554,1 20,1 Z"/>
 <rect style="fill:#48cdff" width="7" height="4" x="3" y="4"/>
 <rect style="opacity:0.1" width="7" height=".5" x="3" y="4"/>
</svg>

<svg xmlns="http://www.w3.org/2000/svg" width="22" height="22" version="1"><rect style="opacity:.2" width="14" height="20" x="-15.5" y="-21" rx="1" ry="1" transform="matrix(0 -1 -1 0 0 0)"/><rect style="fill:#797979" width="14" height="20" x="-15" y="-21" rx="1" ry="1" transform="matrix(0 -1 -1 0 0 0)"/><path style="opacity:.2" d="M3 13v7.5c0 .554.446 1 1 1h14c.554 0 1-.446 1-1V13zM2 11h18v2H2z"/><path style="fill:#f4f4f7" d="M3 12v8c0 .554.446 1 1 1h14c.554 0 1-.446 1-1v-8z"/><path style="opacity:.5" d="M5 18h11v1H5zM5 16h8v1H5zM5 14h12v1H5z"/><path style="opacity:.2" d="M12.75 2.5a.748.748 0 0 0-.75.75v.5c0 .415.335.75.75.75h.5c.415 0 .75-.335.75-.75v-.5a.748.748 0 0 0-.75-.75zm3 0a.748.748 0 0 0-.75.75v.5c0 .415.335.75.75.75h.5c.416 0 .75-.335.75-.75v-.5a.748.748 0 0 0-.75-.75zm3 0a.748.748 0 0 0-.75.75v.5c0 .415.335.75.75.75h.5c.416 0 .75-.335.75-.75v-.5a.748.748 0 0 0-.75-.75zm-6 3a.748.748 0 0 0-.75.75v.5c0 .415.335.75.75.75h.5c.415 0 .75-.335.75-.75v-.5a.748.748 0 0 0-.75-.75zm3 0a.748.748 0 0 0-.75.75v.5c0 .415.335.75.75.75h.5c.416 0 .75-.335.75-.75v-.5a.748.748 0 0 0-.75-.75zm3 0a.748.748 0 0 0-.75.75v.5c0 .415.335.75.75.75h.5c.416 0 .75-.335.75-.75v-.5a.748.748 0 0 0-.75-.75zm-6 3a.748.748 0 0 0-.75.75v.5c0 .415.335.75.75.75h.5c.415 0 .75-.335.75-.75v-.5a.748.748 0 0 0-.75-.75zm3 0a.748.748 0 0 0-.75.75v.5c0 .415.335.75.75.75h.5c.416 0 .75-.335.75-.75v-.5a.748.748 0 0 0-.75-.75zm3 0a.748.748 0 0 0-.75.75v.5c0 .415.335.75.75.75h.5c.416 0 .75-.335.75-.75v-.5a.748.748 0 0 0-.75-.75z"/><rect style="fill:#f4f4f7" width="2" height="2" x="18" y="2" rx=".75" ry=".75"/><rect style="fill:#f4f4f7" width="2" height="2" x="15" y="2" rx=".75" ry=".75"/><rect style="fill:#f4f4f7" width="2" height="2" x="12" y="2" rx=".75" ry=".75"/><rect style="fill:#f4f4f7" width="2" height="2" x="18" y="5" rx=".75" ry=".75"/><rect style="fill:#f4f4f7" width="2" height="2" x="15" y="5" rx=".75" ry=".75"/><rect style="fill:#f4f4f7" width="2" height="2" x="12" y="5" rx=".75" ry=".75"/><rect style="fill:#ff5a5a" width="2" height="2" x="18" y="8" rx=".75" ry=".75"/><rect style="fill:#f4f4f7" width="2" height="2" x="15" y="8" rx=".75" ry=".75"/><rect style="fill:#6bd70f" width="2" height="2" x="12" y="8" rx=".75" ry=".75"/><path style="opacity:.1;fill:#f4f4f7" d="M2 1c-.554 0-1 .446-1 1v.5c0-.554.446-1 1-1h18c.554 0 1 .446 1 1V2c0-.554-.446-1-1-1z"/><path style="fill:#48cdff" d="M3 4h7v4H3z"/><path style="opacity:.1" d="M3 4h7v.5H3z"/></svg>
